svgs/duotone/hands-clapping.svg

<svg xmlns="http://www.w3.org/2000/svg" viewBox="0 0 512 512"><!--! Font Awesome Pro 6.3.0 by @fontawesome - https://fontawesome.com License - https://fontawesome.com/license (Commercial License) Copyright 2023 Fonticons, Inc. --><defs><style>.fa-secondary{opacity:.4}</style></defs><path class="fa-primary" d="M320 0c-8.844 0-16 7.156-16 16v64C304 88.84 311.2 96 320 96s16-7.156 16-16v-64C336 7.156 328.8 0 320 0zM383.4 96c5.125 0 10.16-2.453 13.25-7.016l32.56-48c1.854-2.746 2.744-5.865 2.744-8.951c0-8.947-7.273-16.04-15.97-16.04c-5.125 0-10.17 2.465-13.27 7.02l-32.56 48C368.3 73.76 367.4 76.88 367.4 79.97C367.4 88.88 374.7 96 383.4 96zM237.3 23.02C234.2 18.46 229.1 15.98 223.1 15.98c-8.664 0-15.98 7.074-15.98 16.05c0 3.086 .8906 6.205 2.744 8.951l32.56 48C246.4 93.55 251.4 96 256.6 96c8.762 0 15.99-7.117 15.99-16.03c0-3.088-.8906-6.205-2.744-8.951L237.3 23.02zM480 160c-17.69 0-32 14.33-32 32v76.14l-32-32v121.4c0 94.01-63.31 141.5-78.32 152.2C345.1 510.9 352.6 512 360.3 512C446.1 512 512 440.9 512 357.5l-.0625-165.6C511.9 174.3 497.7 160 480 160z"/><path class="fa-secondary" d="M384 357.5l0-163.9c0-6.016-4.672-33.69-32-33.69c-17.69 0-32.07 14.33-32.07 31.1L320 268.1L169.2 117.3C164.5 112.6 158.3 110.3 152.2 110.3c-13.71 0-24 11.21-24 24c0 6.141 2.344 12.28 7.031 16.97l89.3 89.3C227.4 243.4 228.9 247.2 228.9 251c0 3.8-1.45 7.6-4.349 10.5c-2.899 2.899-6.7 4.349-10.5 4.349c-3.8 0-7.6-1.45-10.5-4.349l-107.6-107.6C91.22 149.2 85.08 146.9 78.94 146.9c-13.71 0-24 11.21-24 24c0 6.141 2.344 12.28 7.031 16.97l107.6 107.6C172.5 298.4 173.9 302.2 173.9 305.1c0 3.8-1.45 7.6-4.349 10.5c-2.899 2.9-6.7 4.349-10.5 4.349c-3.8 0-7.6-1.45-10.5-4.349L59.28 227.2C54.59 222.5 48.45 220.1 42.31 220.1c-13.71 0-24 11.21-24 24c0 6.141 2.344 12.28 7.031 16.97l89.3 89.3c2.9 2.899 4.349 6.7 4.349 10.5c0 3.8-1.45 7.6-4.349 10.5c-2.899 2.899-6.7 4.349-10.5 4.349c-3.8 0-7.6-1.45-10.5-4.349L40.97 318.7C36.28 314 30.14 311.7 24 311.7c-13.71 0-23.99 11.26-23.99 24.05c0 6.141 2.332 12.23 7.02 16.92C112.6 458.2 151.3 512 232.3 512C318.1 512 384 440.9 384 357.5z"/></svg>

<svg xmlns="http://www.w3.org/2000/svg" viewBox="0 0 512 512"><!-- Font Awesome Pro 6.0.0-alpha2 by @fontawesome - https://fontawesome.com License - https://fontawesome.com/license (Commercial License) --><defs><style>.fa-secondary{opacity:.4}</style></defs><path d="M384 357.547L384 193.686C384 187.67 379.328 160 352 160C334.312 160 320 174.328 320 192V268.141L169.156 117.297C164.469 112.609 158.328 110.266 152.188 110.266C138.479 110.266 128.188 121.475 128.188 134.266C128.188 140.406 130.531 146.547 135.219 151.234L224.521 240.535C227.421 243.435 228.871 247.235 228.871 251.035C228.871 254.836 227.421 258.636 224.521 261.535L224.521 261.535C221.622 264.435 217.822 265.884 214.021 265.884C210.221 265.884 206.421 264.435 203.522 261.535L95.906 153.922C91.219 149.234 85.078 146.891 78.938 146.891C65.229 146.891 54.938 158.1 54.938 170.891C54.938 177.031 57.281 183.172 61.969 187.859L169.584 295.473C172.483 298.372 173.933 302.172 173.933 305.973C173.933 309.773 172.483 313.573 169.584 316.473L169.584 316.473C166.684 319.372 162.884 320.822 159.084 320.822C155.284 320.822 151.483 319.372 148.584 316.473L59.281 227.172C54.594 222.484 48.453 220.141 42.312 220.141C28.604 220.141 18.312 231.35 18.312 244.141C18.312 250.281 20.656 256.422 25.344 261.109L114.646 350.41C117.546 353.31 118.996 357.11 118.996 360.91C118.996 364.711 117.546 368.511 114.646 371.41L114.646 371.41C111.747 374.31 107.947 375.76 104.146 375.76C100.346 375.76 96.546 374.31 93.646 371.41L40.969 318.734C36.281 314.047 30.141 311.703 24 311.703C10.291 311.703 0 322.912 0 335.703C0 341.844 2.344 347.984 7.031 352.672C112.553 458.193 151.264 512 232.312 512C318.051 512 384 440.914 384 357.547Z" class="fa-secondary"/><path d="M319.994 0C311.15 0 303.994 7.156 303.994 16V80C303.994 88.844 311.15 96 319.994 96S335.994 88.844 335.994 80V16C335.994 7.156 328.838 0 319.994 0ZM383.432 96C388.557 96 393.588 93.547 396.682 88.984L429.244 40.984C431.098 38.238 431.988 35.119 431.988 32.033C431.988 23.086 424.715 15.996 416.018 15.996C410.893 15.996 405.844 18.461 402.744 23.016L370.182 71.016C368.328 73.762 367.438 76.879 367.438 79.967C367.438 88.885 374.672 96 383.432 96ZM237.244 23.016C234.145 18.455 229.102 15.984 223.977 15.984C215.312 15.984 208 23.059 208 32.033C208 35.119 208.891 38.238 210.744 40.984L243.307 88.984C246.4 93.547 251.432 96 256.557 96C265.318 96 272.551 88.883 272.551 79.967C272.551 76.879 271.66 73.762 269.807 71.016L237.244 23.016ZM479.994 160C462.307 160 447.994 174.328 447.994 192V268.141L415.994 236.141V357.547C415.994 451.555 352.688 499.023 337.67 509.791C345.131 510.922 352.617 512 360.307 512C446.045 512 511.994 440.914 511.994 357.547V192C511.994 174.328 497.682 160 479.994 160Z" class="fa-primary"/></svg>
